X: 1
T: Shetland Night In London
Z: bdh
S: https://thesession.org/tunes/15519#setting29089
R: waltz
M: 3/4
L: 1/8
K: Amix
|: A3 B BA | c3 A BA | Gd-dB-BG | Fd-dA-AF |
A3 B BA | c3 A BA | GF EG FD | B,/A,/G, A,B, CE |
A3 B BA | c3 A BA | G>A BG AG | FA de fa |
zA AB ce | a3 e fe | dc/d/ eA BA | GA A4 ||
|: g3 f ga | f3 e dB | ea-ac-cA | ea-ac-cA |
g3 f ga | f3 e dB | ea-ac-cB | BA A4 :|
|: AB ce-eA | Bc e2 A2 | ed d=c cB | =cd/c/ BA BG |
AB ce-eA | Bc e2 A2 | ed d=c cB | A2 G2 Az :|
